X: 26
T:Stool of Repentance, the
M:6/8
L:1/8
S:AABB
R:Jig
K:A
ve/2f/2g/2||:"A"a2 e c2 e|"A"{g}a gf edc|aff f2 e|"Bm"fag "E"f2 e|!
"A"{g}a2 e c2 e|"A"{g}agf edc|"D"d2 e f2 e|"D"f<AC e name="D1X027" <A % f2 vA:|| ?A?B2 e|?D?f<ac edc|?Bm?d2 eAA|cAA ?A?cAA fed|! fBB|dBB edc|?E?dBB A:||!></A>

